src/shared/icons/icon-skip.svg

<svg xmlns="http://www.w3.org/2000/svg" xmlns:xlink="http://www.w3.org/1999/xlink" version="1.1" viewBox="10.694709 1.8159605 10.053469 9.8530188">
<rect id="icon-skip-clickable" x="9.6893621" y="0.8306586200000003" width="12.0641628" height="11.823622559999999" fill="transparent" fill-opacity="0" stroke-dasharray="0.0452804, 0.18112" stroke-width="0.0279995" style="display:inline;mix-blend-mode:normal;stroke-miterlimit:4.1" xmlns:inkscape="http://www.inkscape.org/namespaces/inkscape" inkscape:label="icon-start-clickable" class="bg-item bg" xmlns="http://www.w3.org/2000/svg"/>
<text x="15.562188" y="10.442361" fill="white" stroke-width="0.105981" text-align="center" style="font-weight:bold;font-size:1.05771px;line-height:1.2;font-family:'Devanagari Sangam MN';letter-spacing:0.0698125px;word-spacing:0.00396651px;text-anchor:middle;fill:#ffffff;fill-opacity:1;stroke:none;stroke-linecap:round;stroke-miterlimit:4.1" xml:space="preserve" id="text1" fill-opacity="1" class="fg" xmlns="http://www.w3.org/2000/svg"><tspan x="15.597094" y="10.442361" fill="white" font-size="1.05771px" stroke-width="0.105981" id="tspan1" style="fill:#ffffff;fill-opacity:1;stroke:none" fill-opacity="1" class="fg">NEXT</tspan></text>
<path id="circle1" style="fill:#ffffff;stroke-width:0.389223;stroke-miterlimit:4.1" d="M 15.632254,2.7123227 A 2.7767174,2.7767174 0 0 0 12.855163,5.4888975 2.7767174,2.7767174 0 0 0 15.632254,8.2659889 2.7767174,2.7767174 0 0 0 18.408829,5.4888975 2.7767174,2.7767174 0 0 0 15.632254,2.7123227 Z M 14.071626,3.913283 c 0.02786,5.256e-4 0.0555,0.00816 0.0801,0.023254 l 2.338358,1.4169678 c 0.100661,0.06213 0.100661,0.2086546 0,0.2707845 L 14.151726,7.0412571 C 14.045945,7.1056961 13.910259,7.0297271 13.90988,6.9058648 V 4.0719297 c -10e-6,-0.057264 0.0308,-0.1102469 0.08061,-0.1384929 0.02515,-0.014154 0.05328,-0.020679 0.08113,-0.020154 z m 1.300696,0.00155 c 0.03731,-0.00617 0.0756,0.00116 0.108004,0.020671 l 2.337841,1.4180013 c 0.101387,0.062017 0.101387,0.2092843 0,0.2713013 l -2.337841,1.416451 C 15.374587,7.1063351 15.23839,7.0305413 15.237963,6.906382 V 6.4800514 L 15.55629,6.2867816 V 6.6231951 L 17.429561,5.4883807 15.55629,4.3556333 v 0.33538 L 15.237963,4.4977435 V 4.0724464 c 7e-5,-0.057828 0.03154,-0.1110596 0.08217,-0.1390096 0.01617,-0.0092 0.03384,-0.015503 0.05219,-0.018603 z" fill="white" fill-opacity="1" class="fg" xmlns="http://www.w3.org/2000/svg"/>
<g id="icon-skip-invert" class="bg" xmlns="http://www.w3.org/2000/svg"/>
</svg>

<svg xmlns="http://www.w3.org/2000/svg" xmlns:xlink="http://www.w3.org/1999/xlink" version="1.1" viewBox="10.695 1.816 10.053 9.853">
<rect id="icon-skip-clickable" x="9.6897" y="0.8307000000000004" width="12.063600000000001" height="11.823599999999999" fill="darkgreen" fill-opacity="1" stroke-dasharray="0.0452804, 0.18112" stroke-width=".028" style="mix-blend-mode:normal" class="bg-item bg" xmlns="http://www.w3.org/2000/svg"/>
<text x="15.562188" y="10.442361" fill="white" font-family="'Devanagari Sangam MN'" font-size="1.0577px" font-weight="bold" letter-spacing=".069812px" stroke-linecap="round" stroke-width=".10598" text-align="center" text-anchor="middle" word-spacing=".0039665px" style="line-height:1.2" xml:space="preserve" fill-opacity="1" class="fg" xmlns="http://www.w3.org/2000/svg"><tspan x="15.597094" y="10.442361" fill="white" font-size="1.0577px" stroke-width=".10598" fill-opacity="1" class="fg">NEXT</tspan></text>
<path d="m15.632 2.7123a2.7767 2.7767 0 0 0-2.7771 2.7766 2.7767 2.7767 0 0 0 2.7771 2.7771 2.7767 2.7767 0 0 0 2.7766-2.7771 2.7767 2.7767 0 0 0-2.7766-2.7766zm-1.5606 1.201c0.027855 5.256e-4 0.055504 0.0081624 0.080099 0.023254l2.3384 1.417c0.10066 0.06213 0.10066 0.20865 0 0.27078l-2.3384 1.417c-0.10578 0.064439-0.24147-0.01153-0.24185-0.13539v-2.8339c-1e-5 -0.057264 0.030805-0.11025 0.080615-0.13849 0.025147-0.014154 0.053277-0.020679 0.081132-0.020154zm1.3007 0.0015503c0.037313-0.0061734 0.075604 0.0011556 0.108 0.020671l2.3378 1.418c0.10139 0.062017 0.10139 0.20928 0 0.2713l-2.3378 1.4165c-0.10574 0.065078-0.24194-0.010716-0.24236-0.13488v-0.42633l0.31833-0.19327v0.33641l1.8733-1.1348-1.8733-1.1327v0.33538l-0.31833-0.19327v-0.4253c7e-5 -0.057828 0.031536-0.11106 0.082166-0.13901 0.01617-0.009203 0.033843-0.015504 0.052193-0.018604z" fill="white" stroke-width=".38922" fill-opacity="1" class="fg" xmlns="http://www.w3.org/2000/svg"/>
</svg>
